docs/images/icons/hydra.svg

<?xml version="1.0" encoding="UTF-8"?>
<!-- Generated by Pixelmator Pro 3.0.1 -->
<svg viewBox="0 0 138 138" xmlns="http://www.w3.org/2000/svg" xmlns:xlink="http://www.w3.org/1999/xlink">
    <path id="Path" fill="#000000" stroke="none" d="M 135.967728 121.080605 C 132.566254 122.586487 128.582581 121.04834 127.073204 117.654724 C 125.569221 114.261108 127.105545 110.286659 130.507034 108.780777 C 132.280548 108.000946 134.205002 108.038589 135.859924 108.737747 L 133.644379 102.741112 C 133.21312 101.531029 131.865463 100.917923 130.663361 101.38044 L 126.048988 103.165985 C 122.351013 104.171692 116.642349 104.634216 112.006409 103.908173 C 95.122971 101.28363 86.659683 109.254051 86.659683 109.254051 C 90.407791 110.18071 95.4049 111.830727 98.753555 114.378891 C 92.938148 116.129478 86.601463 117.196503 80.19471 116.272003 C 76.099449 114.627365 72.960495 111.947433 72.023598 105.451164 C 72.023598 105.451164 68.540718 107.892838 68.064194 111.789307 C 66.675568 110.915359 60.509766 105.888397 58.867783 104.597649 C 55.735828 100.805511 53.797356 97.784065 54.284676 92.254791 C 54.284676 92.254791 49.793205 93.676773 49.044445 97.66037 C 44.618744 94.935257 40.509472 93.001816 36.567303 91.773979 C 34.793251 91.2211 33.049381 90.809677 31.336781 90.53701 C 36.972141 85.646118 49.985107 76.365578 68.981133 74.78978 C 70.753571 74.78064 72.413879 74.830658 73.937813 74.914551 C 73.134071 76.638786 72.989059 78.214584 74.298439 79.900101 C 77.462746 83.971359 87.661804 81.545815 99.310944 94.964302 L 104.1679 90.274551 C 103.364693 90.274551 102.545319 90.129341 101.752899 89.822792 C 98.275948 88.489014 96.550941 84.59523 97.887825 81.12632 C 99.23008 77.662796 103.132896 75.936401 106.604462 77.275558 C 108.410316 77.974724 109.7472 79.362289 110.415627 81.024139 L 113.100166 75.215729 C 113.650002 74.059433 113.137894 72.671867 111.957352 72.150185 L 107.423843 70.160271 C 104.10321 68.26178 99.736801 64.561615 96.97142 60.780777 C 86.890945 47.012703 75.257973 46.673874 75.257973 46.673874 C 77.774857 50.832802 80.880936 57.213982 80.212502 61.951057 C 79.211998 61.834885 78.118782 61.72464 76.93338 61.630524 C 72.674789 60.905006 68.520767 60.611359 64.523087 60.633415 C 60.077976 60.244568 56.819881 58.63166 54.642609 53.987091 C 54.642609 53.987091 52.381241 57.67543 53.833477 61.436371 C 42.256569 63.102524 32.809498 66.989845 27.311602 69.699898 C 35.280563 57.729744 46.339428 48.18837 60.418663 41.180099 C 68.755272 37.030853 76.851982 34.478928 83.365479 32.916573 C 83.052818 35.253914 83.315887 37.089485 85.446259 38.348503 C 89.88813 40.978416 98.480789 34.981781 114.259148 43.199593 L 117.046097 37.052376 C 116.302193 37.348167 115.488213 37.514885 114.63649 37.520271 C 110.916962 37.547165 107.876648 34.5569 107.844307 30.845985 C 107.817352 27.129677 110.809151 24.096397 114.534065 24.069511 C 116.469307 24.053375 118.215866 24.84935 119.455711 26.145485 L 119.811493 19.777748 C 119.897743 18.497749 118.911263 17.395226 117.622902 17.341446 L 112.674301 17.147827 C 108.884697 16.604637 103.461723 14.759933 99.494225 12.259094 C 91.564079 7.253113 85.171875 6 80.320313 6 C 76.553337 6 74.110313 7.096069 74.110313 7.096069 C 77.736588 9.851288 82.557419 14.232872 84.077576 18.597244 C 82.304604 18.847328 78.493965 19.464203 73.385269 20.71785 C 66.091217 21.161545 62.336109 20.834015 56.929852 15.970016 C 56.929852 15.970016 56.267342 21.13842 58.802555 25.170425 C 57.087257 25.799667 55.326679 26.483765 53.531063 27.229172 C 49.115601 28.540909 44.250561 28.951263 39.70303 24.2556 C 39.70303 24.2556 38.528954 29.809608 41.285717 33.094048 C 38.941334 34.379433 36.586174 35.774521 34.242329 37.286858 C 28.432312 39.500511 24.846468 39.898483 19.958248 37.572441 C 19.958248 37.572441 20.096249 42.090622 23.612555 45.114761 C 21.040688 47.276237 18.531889 49.608734 16.11743 52.124641 C 11.595235 55.454788 8.103727 56.809006 3.745945 55.610756 C 3.745945 55.610756 4.91625 60.02784 8.566242 61.079796 C 5.296828 65.515167 2.540601 70.415733 0 75.801941 L 0 131.196899 C 1.655461 128.536865 4.509258 123.989113 7.155516 121.156441 C 15.870539 111.825882 29.616634 108.132706 42.774071 114.612839 C 52.199577 119.254715 62.450928 126.022591 72.995529 128.476639 C 77.158707 129.593689 81.24588 130.037384 85.12336 130.037384 C 92.889633 130.037384 99.81443 128.264206 104.829865 126.590523 C 105.589409 130.240662 106.191002 133.005585 109.526718 133.428848 C 114.647812 134.074219 120.248672 125.162621 138 126.431862 L 138 119.698425 C 137.428589 120.263123 136.749374 120.736404 135.967728 121.080605 Z"/>
</svg>

<svg xmlns="http://www.w3.org/2000/svg" viewBox="0 0 138 138">
  <path stroke="none" d="M135.968 121.08a6.75 6.75 0 0 1-8.895-3.425c-1.504-3.394.033-7.368 3.434-8.874a6.738 6.738 0 0 1 5.353-.043l-2.216-5.997a2.289 2.289 0 0 0-2.98-1.36l-4.615 1.785c-3.698 1.006-9.407 1.468-14.043.742-16.883-2.624-25.346 5.346-25.346 5.346 3.748.927 8.745 2.577 12.094 5.125-5.816 1.75-12.153 2.818-18.56 1.893-4.095-1.645-7.234-4.325-8.17-10.82 0 0-3.483 2.44-3.96 6.337-1.388-.874-7.554-5.9-9.196-7.191-3.132-3.792-5.07-6.814-4.583-12.343 0 0-4.492 1.422-5.24 5.405-4.426-2.725-8.536-4.658-12.478-5.886a37.282 37.282 0 0 0-5.23-1.237c5.635-4.89 18.648-14.171 37.644-15.747 1.773-.01 3.433.04 4.957.125-.804 1.724-.949 3.3.36 4.985 3.165 4.071 13.364 1.646 25.013 15.064l4.857-4.69a6.69 6.69 0 0 1-2.415-.451 6.72 6.72 0 0 1-3.865-8.697 6.747 6.747 0 0 1 8.716-3.85 6.695 6.695 0 0 1 3.812 3.748l2.684-5.808a2.281 2.281 0 0 0-1.143-3.066l-4.533-1.99c-3.32-1.898-7.687-5.598-10.453-9.38-10.08-13.767-21.713-14.106-21.713-14.106 2.517 4.159 5.623 10.54 4.955 15.277a90.677 90.677 0 0 0-3.28-.32 71.45 71.45 0 0 0-12.41-.998c-4.445-.388-7.703-2.001-9.88-6.646 0 0-2.262 3.688-.81 7.45C42.257 63.102 32.81 66.99 27.312 69.7c7.969-11.97 19.027-21.512 33.107-28.52 8.336-4.15 16.433-6.701 22.946-8.263-.312 2.337-.05 4.172 2.081 5.432 4.442 2.63 13.035-3.367 28.813 4.85l2.787-6.147a6.627 6.627 0 0 1-2.41.468c-3.719.027-6.76-2.963-6.792-6.674a6.73 6.73 0 0 1 6.69-6.776 6.704 6.704 0 0 1 4.922 2.075l.355-6.367a2.286 2.286 0 0 0-2.188-2.437l-4.949-.193c-3.79-.543-9.212-2.388-13.18-4.889C91.564 7.253 85.172 6 80.32 6c-3.767 0-6.21 1.096-6.21 1.096 3.627 2.755 8.447 7.137 9.968 11.501-1.773.25-5.584.867-10.693 2.12-7.294.445-11.049.117-16.455-4.747 0 0-.663 5.168 1.873 9.2a135.14 135.14 0 0 0-5.272 2.06c-4.415 1.31-9.28 1.721-13.828-2.974 0 0-1.174 5.554 1.583 8.838a114.06 114.06 0 0 0-7.044 4.193c-5.81 2.214-9.396 2.611-14.284.285 0 0 .138 4.519 3.655 7.543a95.876 95.876 0 0 0-7.496 7.01c-4.522 3.33-8.013 4.684-12.371 3.486 0 0 1.17 4.417 4.82 5.469C5.296 65.515 2.541 70.416 0 75.802v55.395c1.655-2.66 4.51-7.208 7.156-10.04 8.715-9.331 22.46-13.024 35.618-6.544 9.426 4.642 19.677 11.41 30.222 13.864 4.163 1.117 8.25 1.56 12.127 1.56 7.767 0 14.691-1.773 19.707-3.446.76 3.65 1.361 6.415 4.697 6.838 5.12.645 10.722-8.266 28.473-6.997v-6.734a6.754 6.754 0 0 1-2.032 1.383Z"/>
</svg>
